app/dist/common/images/cassava-sciences.svg

<svg height="18" width="18" xmlns="http://www.w3.org/2000/svg"><path d="m0 0h18v18h-18z" fill="#f0f3fa"/><path d="m10.83 4h-3.66l1.83 3z" fill="#fab046"/><path d="m9 7h-3.67l1.83-3z" fill="#fde78b"/><path d="m7.17 10h-3.67l1.83-3z" fill="#f7adad"/><path d="m9 13h-3.67l1.83-3z" fill="#e6408b"/><path d="m14.5 10h-3.67l1.83-3z" fill="#cbeaf1"/><path d="m12.67 7h-3.67l1.83-3z" fill="#f0eb70"/><path d="m12.67 13h-3.67l1.83-3z" fill="#9880ba"/><path d="m9 7h-3.67l1.83 3z" fill="#f2746b"/><path d="m7.17 10h-3.67l1.83 3z" fill="#f071a7"/><path d="m12.67 7h-3.67l1.83 3z" fill="#a0dae6"/><path d="m10.83 10h-3.66l1.83 3z" fill="#cb2127"/><path d="m14.5 10h-3.67l1.83 3z" fill="#8597cc"/></svg>

<!-- by TradingView --><svg xmlns="http://www.w3.org/2000/svg" width="18" height="18"><path fill="#F0F3FA" d="M0 0h18v18H0z"/><path d="M10.83 4H7.17L9 7l1.83-3z" fill="#FAB046"/><path d="M9 7H5.33l1.83-3L9 7z" fill="#FDE78B"/><path d="M7.17 10H3.5l1.83-3 1.84 3z" fill="#F7ADAD"/><path d="M9 13H5.33l1.83-3L9 13z" fill="#E6408B"/><path d="M14.5 10h-3.67l1.83-3 1.84 3z" fill="#CBEAF1"/><path d="M12.67 7H9l1.83-3 1.84 3z" fill="#F0EB70"/><path d="M12.67 13H9l1.83-3 1.84 3z" fill="#9880BA"/><path d="M9 7H5.33l1.83 3L9 7z" fill="#F2746B"/><path d="M7.17 10H3.5l1.83 3 1.84-3z" fill="#F071A7"/><path d="M12.67 7H9l1.83 3 1.84-3z" fill="#A0DAE6"/><path d="M10.83 10H7.17L9 13l1.83-3z" fill="#CB2127"/><path d="M14.5 10h-3.67l1.83 3 1.84-3z" fill="#8597CC"/></svg>
